X: 11911
T: Emmett's Hedgehog
R: jig
M: 6/8
K: Adorian
|:A2e edB|~A3 AGE|~A3 AGE|GAG DEG|
A2e edB|~A3 AGE|GAG DEG|1 BAG AEG:|2 BAG ABd||
|:e2a ged|c2 B2 AG|~B3 BAG|g2f edB|
e2a ged|c2 B2 AG|Bee dBG|1 EFG ABd:|2 EFG A3||

